assets/img/end-cap.svg

<svg fill="none" height="18" viewBox="0 0 70 18" width="70" xmlns="http://www.w3.org/2000/svg"><path d="m15.5879 9.97076c2.1441 0 3.8827 1.73784 3.8828 3.88184 0 2.1442-1.7386 3.8828-3.8828 3.8828-2.144-.0002-3.8818-1.7388-3.8818-3.8828.0001-2.1439 1.7379-3.88165 3.8818-3.88184zm19.4121 0c2.1441 0 3.8827 1.73784 3.8828 3.88184 0 2.1442-1.7386 3.8828-3.8828 3.8828s-3.8828-1.7386-3.8828-3.8828c.0001-2.144 1.7387-3.88184 3.8828-3.88184zm19.4121 0c2.1439.00019 3.8817 1.73794 3.8818 3.88184 0 2.144-1.7378 3.8826-3.8818 3.8828-2.1442 0-3.8828-1.7386-3.8828-3.8828.0001-2.144 1.7387-3.88184 3.8828-3.88184zm-48.52929-9.706051c2.14396.000249 3.88184 1.738801 3.88184 3.882811-.00025 2.1438-1.73804 3.88159-3.88184 3.88184-2.14401 0-3.88256-1.73789-3.88281-3.88184 0-2.14416 1.73865-3.882811 3.88281-3.882811zm19.41109 0c2.1442 0 3.8829 1.738651 3.8829 3.882811-.0003 2.14395-1.7388 3.88184-3.8829 3.88184-2.1439-.00009-3.8815-1.73794-3.8818-3.88184 0-2.14411 1.7378-3.882718 3.8818-3.882811zm19.4122 0c2.1439.000222 3.8818 1.738781 3.8818 3.882811-.0003 2.14382-1.738 3.88162-3.8818 3.88184-2.1441 0-3.8826-1.73789-3.8829-3.88184 0-2.14416 1.7387-3.882811 3.8829-3.882811zm19.4111 0c2.1442 0 3.8828 1.738651 3.8828 3.882811-.0003 2.14395-1.7388 3.88184-3.8828 3.88184-2.1438-.00025-3.8816-1.73804-3.8818-3.88184 0-2.14401 1.7378-3.882562 3.8818-3.882811z" fill="#e2d5c0"/></svg>

<svg width="70" height="18" viewBox="0 0 70 18" fill="none" xmlns="http://www.w3.org/2000/svg">
<path d="M15.5879 9.97076C17.732 9.97076 19.4706 11.7086 19.4707 13.8526C19.4707 15.9968 17.7321 17.7354 15.5879 17.7354C13.4439 17.7352 11.7061 15.9966 11.7061 13.8526C11.7062 11.7087 13.444 9.97095 15.5879 9.97076ZM35 9.97076C37.1441 9.97076 38.8827 11.7086 38.8828 13.8526C38.8828 15.9968 37.1442 17.7354 35 17.7354C32.8558 17.7354 31.1172 15.9968 31.1172 13.8526C31.1173 11.7086 32.8559 9.97076 35 9.97076ZM54.4121 9.97076C56.556 9.97095 58.2938 11.7087 58.2939 13.8526C58.2939 15.9966 56.5561 17.7352 54.4121 17.7354C52.2679 17.7354 50.5293 15.9968 50.5293 13.8526C50.5294 11.7086 52.268 9.97076 54.4121 9.97076ZM5.88281 0.264709C8.02677 0.264958 9.76465 2.00351 9.76465 4.14752C9.7644 6.29132 8.02661 8.02911 5.88281 8.02936C3.7388 8.02936 2.00025 6.29147 2 4.14752C2 2.00336 3.73865 0.264709 5.88281 0.264709ZM25.2939 0.264709C27.4381 0.264709 29.1768 2.00336 29.1768 4.14752C29.1765 6.29147 27.438 8.02936 25.2939 8.02936C23.15 8.02927 21.4124 6.29142 21.4121 4.14752C21.4121 2.00341 23.1499 0.264802 25.2939 0.264709ZM44.7061 0.264709C46.85 0.264931 48.5879 2.00349 48.5879 4.14752C48.5876 6.29134 46.8499 8.02914 44.7061 8.02936C42.562 8.02936 40.8235 6.29147 40.8232 4.14752C40.8232 2.00336 42.5619 0.264709 44.7061 0.264709ZM64.1172 0.264709C66.2614 0.264709 68 2.00336 68 4.14752C67.9997 6.29147 66.2612 8.02936 64.1172 8.02936C61.9734 8.02911 60.2356 6.29132 60.2354 4.14752C60.2354 2.00351 61.9732 0.264958 64.1172 0.264709Z" fill="#E2D5C0"/>
</svg>
